X: 1
T: Michaael Dwyer's Favourite
M: 4/4
L: 1/8
K: G
~B3G A2 GE|DGBG AGED|BdAB G2 {a}ge|dBAc BGGA|
B/d/B BG A2 GE|DGBG AGED|dcBA ~G3B|dBAc BGGB||
dg g/g/g (3gag dg|egdg egde|dg g/g/g gedg|efaf gfef|
dg g/g/g (3gag dg|egdg egde|{a}gedB [F2A2] B/^c/d|ebfa gedc||
